src/actions/22/run-build-configure.svg

<svg xmlns="http://www.w3.org/2000/svg" viewBox="0 0 22 22">
  <defs id="defs3051">
    <style type="text/css" id="current-color-scheme">
      .ColorScheme-Text {
        color:#363636;
      }
      </style>
  </defs>
 <path 
     style="fill:currentColor;fill-opacity:1;stroke:none" 
     d="M 11 3 C 10.32479 3.004 9.65279 3.092995 9 3.265625 L 9 4.2988281 L 9 4.3105469 A 7 7 0 0 0 7.6835938 4.8554688 L 7.6757812 4.8476562 L 6.9433594 4.1152344 C 5.7764094 4.8032844 4.8032844 5.7764094 4.1152344 6.9433594 L 4.6367188 7.4648438 L 4.8554688 7.6835938 A 7 7 0 0 0 4.3085938 9 L 4.2949219 9 L 3.2597656 9 C 3.0891456 9.65304 3.00187 10.32505 3 11 C 3.004 11.67521 3.093005 12.34721 3.265625 13 L 4.2988281 13 L 4.3105469 13 A 7 7 0 0 0 4.8554688 14.316406 L 4.6367188 14.535156 L 4.1152344 15.056641 C 4.8032844 16.223601 5.7763994 17.196716 6.9433594 17.884766 L 7.4648438 17.363281 L 7.6835938 17.144531 A 7 7 0 0 0 9 17.691406 L 9 18 L 9 18.740234 C 9.65304 18.910854 10.32504 18.99813 11 19 C 11.335 18.998 11.66853 18.973387 12 18.929688 L 12 17.923828 C 11.66955 17.972628 11.33491 17.9988 11 18 C 10.66455 17.9995 10.33106 17.974081 10 17.925781 L 10 17.921875 L 10 17 L 10 16.910156 A 6 6 0 0 1 7.5273438 15.886719 L 7.4648438 15.949219 L 6.8144531 16.599609 L 6.8105469 16.603516 C 6.2742469 16.201456 5.7991075 15.72484 5.3984375 15.1875 L 5.4003906 15.185547 L 6.0507812 14.535156 L 6.1152344 14.470703 A 6 6 0 0 1 5.0859375 12 L 5 12 L 4.0800781 12 L 4.0761719 12 C 4.0273719 11.66955 4.0012 11.33491 4 11 C 4.0005 10.66455 4.0259187 10.33106 4.0742188 10 L 4.078125 10 L 5 10 L 5.0898438 10 A 6 6 0 0 1 6.1132812 7.5273438 L 6.0507812 7.4648438 L 5.4003906 6.8144531 L 5.3964844 6.8105469 C 5.7985544 6.2742469 6.27516 5.7991075 6.8125 5.3984375 L 6.8144531 5.4003906 L 7.4648438 6.0507812 L 7.5292969 6.1152344 A 6 6 0 0 1 10 5.0859375 L 10 5 L 10 4.0800781 L 10 4.0761719 C 10.33044 4.0273719 10.66509 4.0012 11 4 C 11.33545 4.0005 11.66894 4.0259187 12 4.0742188 L 12 4.078125 L 12 5 L 12 5.0898438 A 6 6 0 0 1 14.472656 6.1132812 L 14.535156 6.0507812 L 15.185547 5.4003906 L 15.189453 5.3964844 C 15.725763 5.7985444 16.200883 6.27516 16.601562 6.8125 L 16.599609 6.8144531 L 15.949219 7.4648438 L 15.884766 7.5292969 A 6 6 0 0 1 16.914062 10 L 17 10 L 17.919922 10 L 17.923828 10 C 17.972628 10.33045 17.9988 10.66509 18 11 C 17.99951 11.33545 17.974081 11.66894 17.925781 12 L 17.921875 12 L 17 12 L 16.910156 12 A 6 6 0 0 1 16.638672 13 L 17.691406 13 L 18.740234 13 C 18.910854 12.34696 18.99813 11.67496 19 11 C 18.996 10.3248 18.907005 9.65279 18.734375 9 L 18 9 L 17.689453 9 A 7 7 0 0 0 17.144531 7.6835938 L 17.152344 7.6757812 L 17.884766 6.9433594 C 17.196736 5.7763994 16.223601 4.8032844 15.056641 4.1152344 L 14.328125 4.84375 L 14.316406 4.8554688 A 7 7 0 0 0 13 4.3085938 L 13 4.2949219 L 13 3.2597656 C 12.34696 3.0891456 11.67496 3.00187 11 3 z M 9 8 L 9 14 L 14 11 L 9 8 z M 14 14 L 14 15 L 19 15 L 19 14 L 14 14 z M 14 16 L 14 17 L 19 17 L 19 16 L 14 16 z M 14 18 L 14 19 L 19 19 L 19 18 L 14 18 z "
	 class="ColorScheme-Text"
     />
</svg>

<svg xmlns="http://www.w3.org/2000/svg" viewBox="0 0 22 22">
    <path d="M11 3a8.008 8.008 0 0 0-2 .266V4.31a7 7 0 0 0-1.316.544l-.008-.007-.733-.733a8 8 0 0 0-2.828 2.828l.522.522.218.219A7 7 0 0 0 4.31 9H3.26A8 8 0 0 0 3 11c.004.675.093 1.347.266 2H4.31a7 7 0 0 0 .544 1.316l-.218.22-.522.52a8 8 0 0 0 2.828 2.829l.522-.522.219-.218A7 7 0 0 0 9 17.69v1.049a8 8 0 0 0 2 .26 8.013 8.013 0 0 0 1-.07v-1.006c-.33.049-.665.075-1 .076-.335 0-.669-.026-1-.074V16.91a6 6 0 0 1-2.473-1.023l-.062.062-.65.65-.004.005a6.995 6.995 0 0 1-1.413-1.416l.002-.002.65-.65.065-.065A6 6 0 0 1 5.085 12H4.077A7.023 7.023 0 0 1 4 11c0-.335.026-.669.074-1H5.09a6 6 0 0 1 1.023-2.473l-.062-.062-.65-.65-.005-.004a6.995 6.995 0 0 1 1.417-1.413l.001.002.65.65.065.065A6 6 0 0 1 10 5.085V4.077c.33-.049.665-.075 1-.076.335 0 .669.026 1 .074V5.09a6 6 0 0 1 2.473 1.023l.062-.062.65-.65.004-.005a6.995 6.995 0 0 1 1.413 1.417l-.002.001-.65.65-.065.065A6 6 0 0 1 16.915 10H17.923c.049.33.075.665.076 1 0 .335-.026.669-.074 1H16.91a6 6 0 0 1-.271 1H18.74A8 8 0 0 0 19 11a8.008 8.008 0 0 0-.266-2H17.69a7 7 0 0 0-.545-1.316l.007-.008.733-.733a8 8 0 0 0-2.828-2.828l-.729.729-.012.011A7 7 0 0 0 13 4.31V3.26A8 8 0 0 0 11 3zM9 8v6l5-3-5-3zm5 6v1h5v-1h-5zm0 2v1h5v-1h-5zm0 2v1h5v-1h-5z" style="fill:currentColor;fill-opacity:1;stroke:none;color:#050505;opacity:.7"/>
</svg>
